svg/color/awt.svg

<?xml version="1.0" encoding="UTF-8" ?>
<!DOCTYPE svg PUBLIC "-//W3C//DTD SVG 1.1//EN" "http://www.w3.org/Graphics/SVG/1.1/DTD/svg11.dtd">
<svg width="250pt" height="250pt" viewBox="0 0 250 250" version="1.1" xmlns="http://www.w3.org/2000/svg">
<g id="#ffffffff">
<path fill="#ffffff" opacity="1.00" d=" M 0.00 0.00 L 119.58 0.00 C 91.52 1.39 63.95 12.22 42.83 30.82 C 17.20 52.87 1.61 85.77 0.00 119.48 L 0.00 0.00 Z" />
<path fill="#ffffff" opacity="1.00" d=" M 132.21 0.00 L 250.00 0.00 L 250.00 119.59 C 249.08 102.89 245.07 86.32 237.83 71.22 C 225.70 45.55 204.49 24.34 178.82 12.19 C 164.26 5.14 148.29 1.34 132.21 0.00 Z" />
<path fill="#ffffff" opacity="1.00" d=" M 120.32 38.48 C 126.82 35.61 134.71 39.08 137.39 45.55 C 156.99 87.34 176.38 129.23 195.96 171.03 C 198.13 175.76 201.31 180.65 200.30 186.09 C 199.02 193.09 191.37 198.08 184.42 196.46 C 180.26 195.68 176.92 192.53 175.22 188.75 C 154.66 144.92 134.26 101.02 113.82 57.14 C 109.98 50.47 113.12 41.27 120.32 38.48 Z" />
<path fill="#ffffff" opacity="1.00" d=" M 104.60 63.82 C 106.05 60.80 107.29 57.67 109.05 54.80 C 113.49 65.29 118.58 75.48 123.37 85.81 C 107.41 120.06 91.49 154.33 75.52 188.58 C 73.25 193.30 68.38 197.10 62.94 196.68 C 56.19 196.89 50.12 190.65 50.24 183.97 C 50.11 181.20 51.08 178.55 52.20 176.07 C 69.70 138.67 87.12 101.23 104.60 63.82 Z" />
<path fill="#ffffff" opacity="1.00" d=" M 0.00 130.42 C 1.58 164.42 17.42 197.59 43.40 219.68 C 64.41 237.95 91.70 248.58 119.46 250.00 L 0.00 250.00 L 0.00 130.42 Z" />
<path fill="#ffffff" opacity="1.00" d=" M 218.70 207.71 C 237.40 186.77 248.28 159.35 250.00 131.40 L 250.00 250.00 L 131.25 250.00 C 164.45 248.13 196.81 232.86 218.70 207.71 Z" />
<path fill="#ffffff" opacity="1.00" d=" M 104.93 133.81 C 118.42 133.75 131.92 133.88 145.42 133.75 C 149.89 142.37 153.91 151.24 157.82 160.12 C 136.19 160.15 114.55 160.16 92.92 160.11 C 96.29 151.09 100.89 142.56 104.93 133.81 Z" />
</g>
<g id="#0d92fbff">
<path fill="#0d92fb" opacity="1.00" d=" M 119.58 0.00 L 132.21 0.00 C 148.29 1.34 164.26 5.14 178.82 12.19 C 204.49 24.34 225.70 45.55 237.83 71.22 C 245.07 86.32 249.08 102.89 250.00 119.59 L 250.00 131.40 C 248.28 159.35 237.40 186.77 218.70 207.71 C 196.81 232.86 164.45 248.13 131.25 250.00 L 119.46 250.00 C 91.70 248.58 64.41 237.95 43.40 219.68 C 17.42 197.59 1.58 164.42 0.00 130.42 L 0.00 119.48 C 1.61 85.77 17.20 52.87 42.83 30.82 C 63.95 12.22 91.52 1.39 119.58 0.00 M 120.32 38.48 C 113.12 41.27 109.98 50.47 113.82 57.14 C 134.26 101.02 154.66 144.92 175.22 188.75 C 176.92 192.53 180.26 195.68 184.42 196.46 C 191.37 198.08 199.02 193.09 200.30 186.09 C 201.31 180.65 198.13 175.76 195.96 171.03 C 176.38 129.23 156.99 87.34 137.39 45.55 C 134.71 39.08 126.82 35.61 120.32 38.48 M 104.60 63.82 C 87.12 101.23 69.70 138.67 52.20 176.07 C 51.08 178.55 50.11 181.20 50.24 183.97 C 50.12 190.65 56.19 196.89 62.94 196.68 C 68.38 197.10 73.25 193.30 75.52 188.58 C 91.49 154.33 107.41 120.06 123.37 85.81 C 118.58 75.48 113.49 65.29 109.05 54.80 C 107.29 57.67 106.05 60.80 104.60 63.82 M 104.93 133.81 C 100.89 142.56 96.29 151.09 92.92 160.11 C 114.55 160.16 136.19 160.15 157.82 160.12 C 153.91 151.24 149.89 142.37 145.42 133.75 C 131.92 133.88 118.42 133.75 104.93 133.81 Z" />
</g>
</svg>

<?xml version="1.0" encoding="utf-8"?>
<!-- Generator: Adobe Illustrator 26.0.3, SVG Export Plug-In . SVG Version: 6.00 Build 0)  -->
<svg version="1.1" id="Layer_1" xmlns="http://www.w3.org/2000/svg" xmlns:xlink="http://www.w3.org/1999/xlink" x="0px" y="0px"
	 viewBox="0 0 250 250" style="enable-background:new 0 0 250 250;" xml:space="preserve">
<style type="text/css">
	.st0{fill:#FFFFFF;}
	.st1{fill:#0D92FB;}
</style>
<g id="_x23_ffffffff">
	<path class="st0" d="M120.3,38.5c6.5-2.9,14.4,0.6,17.1,7.1c19.6,41.8,39,83.7,58.6,125.5c2.2,4.7,5.3,9.6,4.3,15.1
		c-1.3,7-8.9,12-15.9,10.4c-4.2-0.8-7.5-3.9-9.2-7.7c-20.6-43.8-41-87.7-61.4-131.6C110,50.5,113.1,41.3,120.3,38.5z"/>
	<path class="st0" d="M104.6,63.8c1.5-3,2.7-6.2,4.5-9c4.4,10.5,9.5,20.7,14.3,31c-16,34.2-31.9,68.5-47.9,102.8
		c-2.3,4.7-7.1,8.5-12.6,8.1c-6.8,0.2-12.8-6-12.7-12.7c-0.1-2.8,0.8-5.4,2-7.9C69.7,138.7,87.1,101.2,104.6,63.8z"/>
	<path class="st0" d="M104.9,133.8c13.5-0.1,27,0.1,40.5-0.1c4.5,8.6,8.5,17.5,12.4,26.4c-21.6,0-43.3,0-64.9,0
		C96.3,151.1,100.9,142.6,104.9,133.8z"/>
</g>
<g id="_x23_0d92fbff">
	<path class="st1" d="M119.6,0h12.6c16.1,1.3,32,5.1,46.6,12.2c25.7,12.2,46.9,33.4,59,59c7.2,15.1,11.2,31.7,12.2,48.4v11.8
		c-1.7,28-12.6,55.4-31.3,76.3c-21.9,25.1-54.2,40.4-87.4,42.3h-11.8c-27.8-1.4-55-12.1-76.1-30.3c-26-22.1-41.8-55.3-43.4-89.3
		v-10.9c1.6-33.7,17.2-66.6,42.8-88.7C64,12.2,91.5,1.4,119.6,0 M120.3,38.5c-7.2,2.8-10.3,12-6.5,18.7
		c20.4,43.9,40.8,87.8,61.4,131.6c1.7,3.8,5,6.9,9.2,7.7c6.9,1.6,14.6-3.4,15.9-10.4c1-5.4-2.2-10.3-4.3-15.1
		c-19.6-41.8-39-83.7-58.6-125.5C134.7,39.1,126.8,35.6,120.3,38.5 M104.6,63.8c-17.5,37.4-34.9,74.8-52.4,112.3
		c-1.1,2.5-2.1,5.1-2,7.9c-0.1,6.7,5.9,12.9,12.7,12.7c5.4,0.4,10.3-3.4,12.6-8.1c16-34.2,31.9-68.5,47.9-102.8
		c-4.8-10.3-9.9-20.5-14.3-31C107.3,57.7,106.1,60.8,104.6,63.8 M104.9,133.8c-4,8.8-8.6,17.3-12,26.3c21.6,0.1,43.3,0,64.9,0
		c-3.9-8.9-7.9-17.8-12.4-26.4C131.9,133.9,118.4,133.8,104.9,133.8z"/>
</g>
</svg>
